X:1
T:Cosi vol mia ventura
T:Eliseo Ghibel
T:Source : Primo libro de Madrigali a tre voci---Venetia---A.Gardano---1552. ( First publication : Venetia---G.Scotto---1551) Editor : André Vierendeels (09/11/17). Notes : Original clefs : C4, C4, F4 Editorial accidentals above the staff m 8 in T 1 : "F" notated as quarter in original print
T:#
T:Cosi vol mia ventura
T:©
T:©
T:©
T:©
T:©
T:©
C:Eliseo Ghibel
Z:©
%%score [ 1 2 3 ]
L:1/8
Q:1/4=100
M:4/4
K:C
V:1 treble-8 nm="Tenor 1" snm="T 1"
V:2 treble-8 nm="Tenor 2" snm="T 2"
V:3 bass nm="Bass" snm="B"
V:1
 z4 d4 | d2 c2 d2 A2 | B2 G2 z2 A2 | B6 A2- | AG G4 F2 | G4 z4 | z2 G2 G2 G2 | E2 C2 CDEF | %8
w: Co-|si vol mia ven-|tu- ra, o|ver mio|_ _ fal- *|lo,|che vo sem-|pre co- glien- * * *|
 G4 z2 d2 | d2 d2 B2 G2 | GABc d3 c | BA c3 B BA/G/ | A4 G4 | z4 d4 | e2 c2 e4 | d4 z4 | %16
w: do, che|vo sem- pre co-|glien- * * * * *||* do,|di|piag- gia'in piag-|gia,|
 z2 A2 B2 G2 | B4 A4 | z2 A4 GF | G2 d2 B2 c2 | A2 d4 e2- | ed c4 BA | B4 z4 | z8 | z2 d4 e2 | %25
w: di piag- gia'in|piag- ga,|fio- * *|ri, fio- ri et|fre- sche her-|* * bet- * *|te,||trec- cian-|
 c2 d4 B2 | c2 A2 z2 e2 | e2 dc B2 A2 | BG c4 B2 | c4 z2 B2- | B2 B4 B2 | c4 B4 | z4 B4 | B8- | %34
w: do ghir- lan-|det- te, trec-|cian- * * do ghir-|lan- * det- *|te, et|_ cer- co'un|ti- gre,|hu-|mi-|
 B4 A4 | A8- | A4 G4 | G8- | G4 F4 | E2 D2 G4- | G4 F2 E2 |"^#" F8 | G4 z2 d2- | d2 d4 d2 | %44
w: * li-|ar|_ pian-|gen-|||||do, et|_ cer- co'un|
 e4 d4- | d4 z4 | z4 d4 | d8- | d4 c4 | c8- | c4 B4 | B6 AB | c8- | c4 B4 | A8 | B8 |] %56
w: ti- gre|_|hu-|mi-|* li-|ar|_ pian|gen- * *||||do.|
V:2
 z8 | G4 G2 F2 | G2 E2 D4 | G4 z2 d2 | B2 c2 A4 | B4 z2 G2 | G2 G2 E2 C2 | CDEF G4 | z2 d2 d2 d2 | %9
w: |Co- si vol|mia ven- tu-|ra, o|ver mio fal-|lo, che|vo sem- pre co-|glien- * * * do,|che vo sem-|
 B2 G2 GABc | d3 c BA B2 | G2 A3 G G2- |"^#" G2 F2 G4 | z2 G2 A2 F2 | A4 G4 | z4 z2 d2 | e2 c2 e4 | %17
w: pre co glien- * * *|||* * do,|di piag- gia'in|piag- ga,|di|piag- ga'in piag-|
 d4 z2 d2- | d2 cB c4 | z2 A3 G G2 | FG A2 D2 G2- | GFFE G2 d2- | d2 e2 c2 d2- | d2 B2 c4 | %24
w: ga, fio-|* * * ri,|fio- ri et|fre _ sche her- bet-|* * * * te, trec-|* cian- do ghir-|* lan- det-|
 A4 z2 G2 | A2 F4 G2 | E2 F2 EDEF | GABc dBcd | e2 c2 f4 | e4 z2 d2- | d2 d4 d2 | e4 d4- | d4 z4 | %33
w: te, trec-|cian- do ghir-|lan- det- * * * *|||te, et|_ cer- co'un|ti- gre,|_|
 z4 d4 | d8- | d4 c4 | c8- | c4 B4 | B6 AB | c8 | A8- | A8 | B4 z2 B2- | B2 B4 B2 | c4 B4 | z4 B4 | %46
w: hu-|mi-|* li-|ar|_ pian-|gen- * *||||do, et|_ cer- co'un|ti- gre|hu-|
 B8- | B4 z2 x2 | A8- | A4 G4 | G8- | G4 F4 | G4 A4- | A2 G2 G4- |"^#""^#" G2 FE F4 | G8 |] %56
w: mi-||ar|_ pian-|gen-||gen- *|||do.|
V:3
 G,4 G,2 F,2 | G,2 E,2 D,4 | G,,2 G,2 G,2 F,2 | E,4 D,2 D,2 | E,2 C,2 D,4 | G,,2 G,2 G,2 G,2 | %6
w: Co- si vol|mia ven- tu-|ra, o ver mio|fal- lo, o|ver mio fal-|lo, che vo sem-|
 E,2 C,2 C,D,E,F, | G,2 G,2 E,2 C,2- | C,B,, G,,A,, B,,C, D,2 | z8 | z8 | z8 | D,4 E,2 C,2 | %13
w: pre co- glien- * * *|do sem- pre co-|* * glien- * * * do,||||di piag- gia'in|
 E,4 D,4 | z8 | G,4 A,2 F,2 | A,4 G,4 | z2 G,4 F,E, | F,4 z2 C,2- | C,2 D,2 E,2 C,2 | %20
w: pian- gia,||di pian- gia'in|piag- gia|fio- * *|ri, fio-|* ri et fre-|
 D,3 C, B,,2 C,2 | A,,4 G,,4 | G,4 A,2 F,2 | G,4 E,2 F,2- | F,2 D,4 z2 | z2 D,4 E,2 | %26
w: sche _ _ her-|bet- te,|trec- cian- do|ghir- lan- det-|* te,|trec- cian-|
 C,2 D,2 B,,2 C,D, | E,F, G,4 F,2 | E,2 F,2 D,4 | C,4 z2 G,2- | G,2 G,4 G,2 | C,4 G,4 | z4 G,4 | %33
w: do ghir- lan det- *|||te, et|_ cer- co'un|ti- gre|hu-|
 G,8- | G,4 F,4 | F,8- | F,4 E,4 | E,8- | E,4 D,4 | C,2 B,,2 C,4 | D,8- | D,8 | G,,4 z2 G,2- | %43
w: mi-|* li-|ar|_ pian-|gen-|||||do, et|
 G,2 G,4 G,2 | C,4 G,4 | z4 G,4 | G,8- | G,4 F,4 | F,8- | F,4 E,4 | E,8- | E,4 D,4 | C,8 | D,8- | %54
w: _ cer- co'un|ti- gre|hu-|mi-|* li-|ar|_ pian-|gen-||||
 D,8 | G,,8 |] %56
w: |do.|

